!!!OTL: 338. Lied der Hessen vor Frankfurt (2. Der. 1792.)
!!!ARE: Europa, Mitteleuropa, Deutschland
!!!SCT: E0338
!!!TXL: @@DE
!!!YEM: Copyright 1995, estate of Helmut Schaffrath.
**kern	**text
*ICvox	*
*M3/4	*
*met(3)	*
*k[b-]	*
*F:	*
!LO:TX:a:t=Lebhaft.	!
!LO:TX:a:t=v. Ditfurth, hiſt. Lieder. 1763-1812. Nr. 50.	!
{4f	Ʒum
=1	=1
2a	Donner,
4f	ʒum
=2	=2
2a	Donner,
4f	ʒum
=3	=3
2a	Donner-
4b-	-Hal-
=4	=4
2cc^}	-loh!
{4a	bei
=5	=5
2g	uns
4g	gehts
=6	=6
2cc	in
4b-	Ba-
=7	=7
2a	-tal-
4g	-je
=8	=8
2f;}	ſo
{4f	Ʒum
=9	=9
2a	Donner,
4f	ʒum
=10	=10
2a	Donner,
4f	ʒum
=11	=11
2a	Donner-
4b-	-Hal-
=12	=12
2cc^}	-loh!
{4a	bei
=13	=13
2g	uns
4g	gehts
=14	=14
2cc	in
4b-	Ba-
=15	=15
2a	-tal-
4g	-je
=16	=16
2f;}	ſo
{4f	Fran-
=17	=17
4g	-ʒo-
4g	-ſen
4a	die
=18	=18
4b-	müſ-
4b-	-ſen
4g	die
=19	=19
2a	Ʒeche
4ff	be-
=20	=20
2cc}	-ʒahln
{4a	für
=21	=21
2g	ihr
4a	Ge-
=22	=22
4b-/	-po-
4b-/	-che
4g	und
=23	=23
2a	Hochmuths-
4ff	-prahl'n.
=24	=24
2cc;}	.
{8fL	Ʒum
8gJ	.
=25	=25
4a	Don-
4a	-ner,
4f	ʒum
=26	=26
4a	Don-
4a	-ner,
4f	ʒum
=27	=27
4a	Don-
4a	-ner
4b-	Hal-
=28	=28
2cc}	-loh!
{4a	bei
=29	=29
2g	uns
4g	gehts
=30	=30
2cc	in
4b-	Ba-
=31	=31
2a	-tal-
4g	-je
=32	=32
2f}	ſo!
==	==
!!!AGN: historisches Lied, Krieg gegen Franzosen (1792)
!!!ONB: ESAC (Essen Associative Code) Database: ERK1
!!!AMT: simple triple
!!!AIN: vox
!!!EED: Helmut Schaffrath
!!!EEV: 1.0
!!!GTL: Historische Lieder
!!!URL-scan: https://rosdok.uni-rostock.de/mcrviewer/recordIdentifier/rosdok_ppn745177662/iview2/phys_0152.iview2?x=-511.385789653207&y=1263.3706941736164&scale=0.48104763951911705&rotation=0&layout=singlePageLayout
!!!ENC: Anna Maria Matuszewska
!!!EEV: 2024/06/12
*-	*-
